images/zhuyin/11.svg

<svg width="50" height="50" viewBox="0 0 50 50" fill="none" xmlns="http://www.w3.org/2000/svg">
<path d="M32.4062 16.1562C32.75 16.1562 33.1094 16.3516 33.4844 16.7422C33.8281 17.1172 34 17.4219 34 17.6562C34 17.9062 33.875 18.0312 33.625 18.0312C33.1875 17.9688 32.8438 17.9375 32.5938 17.9375C28.9531 18.0469 25.2031 18.5234 21.3438 19.3672C21.3438 20.9453 21.0781 22.8516 20.5469 25.0859C20.0156 27.3672 19.2734 29.25 18.3203 30.7344C17.5078 31.9688 16.7031 32.7969 15.9062 33.2188C15.8438 33.2188 15.8125 33.1875 15.8125 33.125C15.8125 33.0625 15.9062 32.9062 16.0938 32.6562C16.9062 31.5312 17.625 29.8438 18.25 27.5938C19 24.8594 19.375 22.3906 19.375 20.1875C19.375 19.5 19.25 18.9688 19 18.5938C18.875 18.3438 18.8125 18.1875 18.8125 18.125C18.8125 17.9375 18.9375 17.8438 19.1875 17.8438C20.875 17.8438 23.4688 17.5625 26.9688 17C30.3438 16.4375 32.1562 16.1562 32.4062 16.1562Z" fill="#333333"/>
<path d="M33.4844 16.7422L33.8531 16.4042L33.8451 16.3959L33.4844 16.7422ZM33.625 18.0312L33.5543 18.5262L33.5895 18.5312H33.625V18.0312ZM32.5938 17.9375V17.4375H32.5862L32.5787 17.4377L32.5938 17.9375ZM21.3438 19.3672L21.237 18.8787L20.8438 18.9647V19.3672H21.3438ZM20.5469 25.0859L20.0604 24.9703L20.0599 24.9725L20.5469 25.0859ZM18.3203 30.7344L18.738 31.0093L18.741 31.0045L18.3203 30.7344ZM15.9062 33.2188V33.7188H16.0304L16.1402 33.6606L15.9062 33.2188ZM16.0938 32.6562L16.4938 32.9563L16.4991 32.949L16.0938 32.6562ZM18.25 27.5938L18.7318 27.7276L18.7322 27.726L18.25 27.5938ZM19 18.5938L18.5528 18.8174L18.5667 18.8452L18.584 18.8711L19 18.5938ZM26.9688 17L27.0481 17.4937L27.0509 17.4932L26.9688 17ZM32.4062 16.6562C32.5528 16.6562 32.7901 16.741 33.1237 17.0885L33.8451 16.3959C33.4286 15.9622 32.9472 15.6562 32.4062 15.6562V16.6562ZM33.1158 17.08C33.2724 17.2509 33.3747 17.3897 33.4356 17.4976C33.4985 17.6092 33.5 17.6573 33.5 17.6562H34.5C34.5 17.4208 34.4155 17.1994 34.3066 17.0063C34.1956 16.8095 34.0401 16.6084 33.853 16.4043L33.1158 17.08ZM33.5 17.6562C33.5 17.7042 33.4884 17.6483 33.5527 17.5839C33.617 17.5196 33.6729 17.5312 33.625 17.5312V18.5312C33.8271 18.5312 34.0705 18.4804 34.2598 18.2911C34.4491 18.1017 34.5 17.8583 34.5 17.6562H33.5ZM33.6957 17.5363C33.2496 17.4726 32.8788 17.4375 32.5938 17.4375V18.4375C32.8087 18.4375 33.1254 18.4649 33.5543 18.5262L33.6957 17.5363ZM32.5787 17.4377C28.9048 17.5481 25.124 18.0289 21.237 18.8787L21.4505 19.8556C25.2823 19.0179 29.0015 18.5456 32.6088 18.4373L32.5787 17.4377ZM20.8438 19.3672C20.8438 20.8931 20.5864 22.7583 20.0604 24.9703L21.0333 25.2016C21.5699 22.9448 21.8438 20.9975 21.8438 19.3672H20.8438ZM20.0599 24.9725C19.5376 27.2153 18.8136 29.0408 17.8996 30.4642L18.741 31.0045C19.7333 29.4592 20.4936 27.5191 21.0338 25.1993L20.0599 24.9725ZM17.9027 30.4595C17.1101 31.6635 16.3618 32.4118 15.6723 32.7769L16.1402 33.6606C17.0445 33.1819 17.9055 32.274 18.738 31.0093L17.9027 30.4595ZM15.9062 32.7188C15.9521 32.7188 16.0783 32.7305 16.1895 32.8418C16.3007 32.953 16.3125 33.0792 16.3125 33.125H15.3125C15.3125 33.2333 15.3399 33.4064 15.4824 33.5489C15.6248 33.6913 15.7979 33.7188 15.9062 33.7188V32.7188ZM16.3125 33.125C16.3125 33.176 16.3035 33.2132 16.2993 33.2287C16.2945 33.2463 16.2901 33.2565 16.2897 33.2575C16.2891 33.2588 16.2943 33.2469 16.3116 33.2182C16.3455 33.1615 16.4042 33.0757 16.4938 32.9562L15.6937 32.3563C15.5958 32.4868 15.5138 32.6041 15.4541 32.7037C15.4244 32.7531 15.3945 32.8076 15.3705 32.8636C15.3519 32.9071 15.3125 33.005 15.3125 33.125H16.3125ZM16.4991 32.949C17.362 31.7541 18.1002 30.0012 18.7318 27.7276L17.7682 27.4599C17.1498 29.6863 16.4505 31.3084 15.6884 32.3635L16.4991 32.949ZM18.7322 27.726C19.4908 24.9602 19.875 22.446 19.875 20.1875H18.875C18.875 22.3353 18.5092 24.7586 17.7678 27.4615L18.7322 27.726ZM19.875 20.1875C19.875 19.4496 19.7425 18.8062 19.416 18.3164L18.584 18.8711C18.7575 19.1313 18.875 19.5504 18.875 20.1875H19.875ZM19.4472 18.3701C19.3874 18.2506 19.3475 18.163 19.3236 18.1034C19.3116 18.0734 19.3065 18.0573 19.305 18.0521C19.3043 18.0498 19.3057 18.054 19.3074 18.0634C19.3088 18.0715 19.3125 18.0936 19.3125 18.125H18.3125C18.3125 18.2105 18.3315 18.285 18.3435 18.3268C18.3576 18.3763 18.3759 18.4266 18.3951 18.4748C18.4338 18.5714 18.4876 18.6869 18.5528 18.8174L19.4472 18.3701ZM19.3125 18.125C19.3125 18.1331 19.3111 18.1639 19.2928 18.205C19.2733 18.2491 19.2421 18.2871 19.2063 18.3141C19.1732 18.3389 19.1476 18.3457 19.1447 18.3464C19.1423 18.347 19.1546 18.3438 19.1875 18.3438V17.3438C19.0144 17.3438 18.7934 17.3737 18.6062 17.5141C18.392 17.6747 18.3125 17.9093 18.3125 18.125H19.3125ZM19.1875 18.3438C20.9172 18.3438 23.5439 18.0568 27.0481 17.4937L26.8894 16.5063C23.3936 17.0682 20.8328 17.3438 19.1875 17.3438V18.3438ZM27.0509 17.4932C28.7379 17.212 30.0326 17.0015 30.936 16.8613C31.388 16.7911 31.74 16.7389 31.9933 16.7044C32.1202 16.6871 32.2199 16.6746 32.2938 16.6664C32.3308 16.6624 32.3593 16.6597 32.3804 16.658C32.4036 16.6562 32.4101 16.6562 32.4062 16.6562V15.6562C32.3019 15.6562 32.1025 15.6803 31.8582 15.7136C31.5959 15.7493 31.237 15.8026 30.7827 15.8731C29.8737 16.0142 28.5746 16.2255 26.8866 16.5068L27.0509 17.4932Z" fill="#333333"/>
</svg>

<svg xmlns="http://www.w3.org/2000/svg" width="50" height="50" fill="none"><path fill="#333" d="M32.406 16.156c.344 0 .703.196 1.078.586.344.375.516.68.516.914 0 .25-.125.375-.375.375a7.766 7.766 0 0 0-1.031-.093c-3.64.109-7.39.585-11.25 1.43 0 1.577-.266 3.484-.797 5.718-.531 2.281-1.274 4.164-2.227 5.648-.812 1.235-1.617 2.063-2.414 2.485-.062 0-.094-.032-.094-.094 0-.063.094-.219.282-.469.812-1.125 1.531-2.812 2.156-5.062.75-2.735 1.125-5.203 1.125-7.407 0-.687-.125-1.218-.375-1.593-.125-.25-.188-.407-.188-.469 0-.188.125-.281.375-.281 1.688 0 4.282-.282 7.782-.844 3.375-.563 5.187-.844 5.437-.844Z"/><path fill="#333" d="m33.484 16.742.37-.338-.009-.008-.36.346Zm.141 1.29-.07.494.035.005h.035v-.5Zm-1.031-.095v-.5h-.015l.015.5Zm-11.25 1.43-.107-.488-.393.086v.402h.5Zm-.797 5.719-.487-.116v.003l.487.113Zm-2.227 5.648.418.275.003-.005-.42-.27Zm-2.414 2.485v.5h.124l.11-.058-.234-.442Zm.188-.563.4.3.005-.007-.405-.293Zm2.156-5.062.482.134v-.002l-.482-.132Zm.75-9-.447.223.014.028.017.026.416-.277ZM26.969 17l.08.494h.002L26.969 17Zm5.437-.344c.147 0 .384.085.718.433l.721-.693c-.416-.434-.898-.74-1.439-.74v1Zm.71.424c.156.17.259.31.32.418.063.111.064.16.064.158h1c0-.235-.084-.457-.193-.65a3.36 3.36 0 0 0-.454-.602l-.737.676Zm.384.576c0 .048-.012-.008.053-.072.064-.064.12-.053.072-.053v1c.202 0 .446-.05.635-.24.19-.19.24-.433.24-.635h-1Zm.196-.12a8.22 8.22 0 0 0-1.102-.099v1c.215 0 .531.028.96.09l.142-.99Zm-1.117-.098c-3.674.11-7.455.59-11.342 1.44l.214.978c3.831-.838 7.55-1.31 11.158-1.419l-.03-1Zm-11.735 1.93c0 1.525-.258 3.39-.784 5.602l.973.232c.537-2.257.81-4.205.81-5.835h-1Zm-.784 5.605c-.522 2.242-1.246 4.068-2.16 5.491l.841.54c.992-1.545 1.753-3.485 2.293-5.805l-.974-.227Zm-2.157 5.486c-.793 1.204-1.541 1.953-2.23 2.318l.467.884c.904-.48 1.765-1.387 2.598-2.652l-.835-.55Zm-1.997 2.26c.046 0 .172.011.283.123a.408.408 0 0 1 .123.283h-1c0 .108.028.281.17.424.143.142.316.17.424.17v-1Zm.406.406a.397.397 0 0 1-.013.104l-.01.029s.005-.011.023-.04c.034-.057.092-.142.182-.262l-.8-.6c-.098.13-.18.248-.24.348-.03.05-.06.104-.084.16a.668.668 0 0 0-.057.261h1Zm.187-.176c.863-1.195 1.601-2.948 2.233-5.221l-.964-.268c-.618 2.226-1.317 3.848-2.08 4.904l.811.585Zm2.233-5.223c.759-2.766 1.143-5.28 1.143-7.538h-1c0 2.147-.366 4.57-1.107 7.274l.964.264Zm1.143-7.538c0-.738-.133-1.382-.459-1.872l-.832.555c.174.26.291.68.291 1.317h1Zm-.428-1.818a3.779 3.779 0 0 1-.142-.318l.002.011c.002.009.006.03.006.062h-1c0 .085.018.16.03.202.015.05.033.1.052.148.039.096.093.212.158.342l.894-.447Zm-.134-.245a.206.206 0 0 1-.02.08.28.28 0 0 1-.087.11.185.185 0 0 1-.061.031c-.003.001.01-.002.043-.002v-1a.956.956 0 0 0-.582.17.745.745 0 0 0-.294.611h1Zm-.125.219c1.73 0 4.356-.287 7.86-.85l-.159-.988c-3.495.562-6.056.838-7.701.838v1Zm7.863-.85c1.687-.282 2.982-.492 3.885-.633.452-.07.804-.122 1.057-.157a12.628 12.628 0 0 1 .387-.046l.026-.002v-1c-.104 0-.303.024-.548.058-.262.035-.621.089-1.075.16-.91.14-2.208.351-3.896.633l.164.986Z"/></svg>
